public/img/tubitv.svg

<svg viewBox="0 0 942 400" version="1.1" xmlns="http://www.w3.org/2000/svg" xmlns:xlink="http://www.w3.org/1999/xlink">
    <g id="Page-1" stroke="none" stroke-width="1" fill="none" fill-rule="evenodd">
        <path d="M812.146,95 L757,95 L757,340.112401 C757,344.467452 760.5175,348 764.854,348 L812.146,348 C816.4825,348 820,344.467452 820,340.112401 L820,102.887599 C820,98.5325475 816.4825,95 812.146,95 Z M788.5,0 C771.1036,0 757,14.1036 757,31.5 C757,48.8964 771.1036,63 788.5,63 C805.8964,63 820,48.8964 820,31.5 C820,14.1036 805.8964,0 788.5,0 Z M433.111163,95 L379.838314,95 L379.838314,220.572215 C379.838314,255.485778 350.084322,283.785051 315.22368,283.785051 C280.365147,283.785051 251.170123,255.485778 251.170123,220.572215 L251.170123,102.900812 C251.170123,98.5384654 247.639131,95 243.281287,95 L190,95 L190,220.572215 C190,290.397229 245.506614,347 315.22368,347 C384.942855,347 441,290.397229 441,220.572215 L441,102.900812 C441,98.5384654 437.466898,95 433.111163,95 Z M662,221.001053 C662,186.20773 633.794376,158 598.998947,158 C564.205624,158 536,186.20773 536,221.001053 C536,255.796481 564.205624,284 598.998947,284 C633.794376,284 662,255.796481 662,221.001053 Z M725,220.595256 C725,290.407544 668.364424,347 598.498943,347 C528.635576,347 472,290.407544 472,220.595256 L472,0 L527.124251,0 C531.49124,0 535.031756,3.53782055 535.031756,7.89937245 L535.031756,98.1739922 C535.031756,102.537656 538.789988,106.075477 543.154863,106.075477 C544.279373,106.075477 545.391201,105.834694 546.414251,105.374249 L546.416365,105.376361 C562.301129,98.1930014 579.931842,94.192624 598.498943,94.192624 C668.364424,94.192624 725,150.78508 725,220.595256 Z M185.186386,323.475185 C187.111914,327.391411 185.503084,332.127214 181.5908,334.055754 C164.771989,342.344465 145.843964,347 125.828608,347 C56.0429983,347 0,290.402721 0,220.584483 L0,0 L55.4307142,0 C59.7905993,0 63.3270679,3.53600974 63.3270679,7.90004566 L63.3270679,87.1370811 C63.3270679,91.4990047 66.8635365,95.0371268 71.2255329,95.0371268 L150.414982,95.0371268 C154.776978,95.0371268 158.313447,98.5752488 158.313447,102.939285 L158.313447,150.464185 C158.313447,154.826109 154.776978,158.364231 150.414982,158.364231 L71.2382009,158.364231 C66.8762044,158.364231 63.3397358,161.902353 63.3397358,166.264276 L63.3397358,220.584483 C63.3397358,255.494658 90.9368587,283.791186 125.828608,283.791186 C134.831296,283.791186 143.394828,281.909116 151.147612,278.512519 C154.831873,276.8966 159.143198,278.311849 161.15529,281.799276 L161.167958,281.790826 L184.947806,323.02315 L184.941472,323.016813 L185.186386,323.475185 L185.186386,323.475185 Z" id="Fill-72" fill="#1B1C1D"></path>
    </g>
</svg>

<?xml version="1.0" encoding="utf-8"?>
<!-- Generator: Adobe Illustrator 24.0.1, SVG Export Plug-In . SVG Version: 6.00 Build 0)  -->
<svg version="1.1" id="Layer_1" xmlns="http://www.w3.org/2000/svg" xmlns:xlink="http://www.w3.org/1999/xlink" x="0px" y="0px"
	 width="820px" height="348px" viewBox="0 0 820 348" style="enable-background:new 0 0 820 348;" xml:space="preserve">
<style type="text/css">
	.st0{fill-rule:evenodd;clip-rule:evenodd;fill:#1B1C1D;}
</style>
<g id="Page-1">
	<path id="Fill-72" class="st0" d="M812.1,95H757v245.1c0,4.4,3.5,7.9,7.9,7.9h47.3c4.3,0,7.9-3.5,7.9-7.9V102.9
		C820,98.5,816.5,95,812.1,95z M788.5,0C771.1,0,757,14.1,757,31.5S771.1,63,788.5,63S820,48.9,820,31.5S805.9,0,788.5,0z M433.1,95
		h-53.3v125.6c0,34.9-29.8,63.2-64.6,63.2c-34.9,0-64.1-28.3-64.1-63.2V102.9c0-4.4-3.5-7.9-7.9-7.9H190v125.6
		c0,69.8,55.5,126.4,125.2,126.4c69.7,0,125.8-56.6,125.8-126.4V102.9C441,98.5,437.5,95,433.1,95z M662,221c0-34.8-28.2-63-63-63
		c-34.8,0-63,28.2-63,63c0,34.8,28.2,63,63,63C633.8,284,662,255.8,662,221z M725,220.6c0,69.8-56.6,126.4-126.5,126.4
		C528.6,347,472,290.4,472,220.6V0h55.1c4.4,0,7.9,3.5,7.9,7.9v90.3c0,4.4,3.8,7.9,8.1,7.9c1.1,0,2.2-0.2,3.3-0.7l0,0
		c15.9-7.2,33.5-11.2,52.1-11.2C668.4,94.2,725,150.8,725,220.6z M185.2,323.5c1.9,3.9,0.3,8.7-3.6,10.6
		c-16.8,8.3-35.7,12.9-55.8,12.9C56,347,0,290.4,0,220.6V0h55.4c4.4,0,7.9,3.5,7.9,7.9v79.2c0,4.4,3.5,7.9,7.9,7.9h79.2
		c4.4,0,7.9,3.5,7.9,7.9v47.5c0,4.4-3.5,7.9-7.9,7.9H71.2c-4.4,0-7.9,3.5-7.9,7.9v54.3c0,34.9,27.6,63.2,62.5,63.2
		c9,0,17.6-1.9,25.3-5.3c3.7-1.6,8-0.2,10,3.3l0,0l23.8,41.2l0,0L185.2,323.5L185.2,323.5z"/>
</g>
</svg>
